X:366
T:Sword of St. Columba, The
C:Joe Buchanan's Scottish Tome - Page 213.1
I:213 1
Z:Carl Allison
R:March
L:1/8
M:2/4
K:D
"D"DF AB/c/ | "D"dd (c/B/)A | "A7"A,C E>F | "Em"GG "A7"(E/G/)F/E/ | 
"D"DF AB/c/ | "D"dd (c/B/)A | "A7"A,C (E/G/)F/E/ | "D"D2 D z |] 
"D"fA eA | "D"ff/g/ f/e/d | "A7"eA eA | "Em"e(e/f/) "A7"e/c/d/e/ | 
"D"eA fA | "D"ff/g/ f/e/d | "Em"e/d/c/B/ "A7"A/G/F/E/ | "D"D2 D z |] 

